; generated by Slic3r 1.3.0 on 2021-03-23 at 01:27:45

; external perimeters extrusion width = 0.55mm (7.28mm^3/s)
; perimeters extrusion width = 0.70mm (11.44mm^3/s)
; infill extrusion width = 0.63mm (13.45mm^3/s)
; solid infill extrusion width = 0.70mm (3.81mm^3/s)
; top infill extrusion width = 0.70mm (2.86mm^3/s)

M107
M104 S200 ; set temperature
G28 ; home all axes
G1 Z5 F5000 ; lift nozzle

; Filament gcode

M109 S200 ; set temperature and wait for it to be reached
G21 ; set units to millimeters
G90 ; use absolute coordinates
M82 ; use absolute distances for extrusion
G92 E0
G1 Z0.350 F7800.000
G1 E-2.00000 F2400.00000
G92 E0
G1 X92.033 Y88.472 F7800.000
G1 E2.00000 F2400.00000
G1 F1800
G1 X94.010 Y87.332 E2.06340
G1 X96.247 Y86.939 E2.12649
G1 X103.753 Y86.939 E2.33498
G1 X106.000 Y87.336 E2.39837
G1 X107.976 Y88.479 E2.46177
G1 X109.435 Y90.220 E2.52486
G1 X113.188 Y96.720 E2.73335
G1 X113.968 Y98.864 E2.79674
G1 X113.966 Y101.147 E2.86014
G1 X113.188 Y103.280 E2.92323
G1 X109.435 Y109.780 E3.13172
G1 X107.967 Y111.528 E3.19512
G1 X105.990 Y112.668 E3.25851
G1 X103.753 Y113.061 E3.32160
G1 X96.247 Y113.061 E3.53009
G1 X94.000 Y112.664 E3.59349
G1 X92.024 Y111.521 E3.65688
G1 X90.565 Y109.780 E3.71997
G1 X86.812 Y103.280 E3.92846
G1 X86.032 Y101.136 E3.99186
G1 X86.034 Y98.853 E4.05526
G1 X86.812 Y96.720 E4.11835
G1 X90.565 Y90.219 E4.32683
G1 X91.985 Y88.529 E4.38815
G1 E2.38815 F2400.00000
G92 E0
G1 X103.282 Y103.495 F7800.000
G1 E2.00000 F2400.00000
G1 F1800
G1 X102.828 Y103.871 E2.01637
G1 X102.558 Y104.054 E2.02543
G1 X102.052 Y104.332 E2.04146
G1 X101.765 Y104.457 E2.05017
G1 X101.469 Y104.563 E2.05888
G1 X100.898 Y104.710 E2.07526
G1 X100.313 Y104.783 E2.09164
G1 X100.000 Y104.793 E2.10035
G1 X99.687 Y104.783 E2.10906
G1 X99.102 Y104.710 E2.12544
G1 X98.531 Y104.563 E2.14182
G1 X98.224 Y104.453 E2.15088
G1 X97.690 Y104.202 E2.16725
G1 X97.199 Y103.890 E2.18342
G1 X96.935 Y103.686 E2.19267
G1 X96.514 Y103.290 E2.20874
G1 X96.294 Y103.040 E2.21799
G1 X95.952 Y102.569 E2.23416
G1 X95.668 Y102.052 E2.25053
G1 X95.543 Y101.764 E2.25926
G1 X95.435 Y101.462 E2.26817
G1 X95.290 Y100.898 E2.28434
G1 X95.217 Y100.313 E2.30071
G1 X95.207 Y99.999 E2.30944
G1 X95.217 Y99.679 E2.31834
G1 X95.290 Y99.101 E2.33452
G1 X95.437 Y98.531 E2.35089
G1 X95.543 Y98.235 E2.35962
G1 X95.671 Y97.941 E2.36852
G1 X95.952 Y97.431 E2.38469
G1 X96.298 Y96.954 E2.40107
G1 X96.514 Y96.709 E2.41012
G1 X96.935 Y96.314 E2.42615
G1 X97.192 Y96.114 E2.43521
G1 X97.680 Y95.805 E2.45124
G1 X97.970 Y95.657 E2.46030
G1 X98.500 Y95.447 E2.47612
G1 X98.819 Y95.354 E2.48537
G1 X99.399 Y95.243 E2.50176
G1 X99.980 Y95.207 E2.51793
G1 X100.313 Y95.216 E2.52718
G1 X100.898 Y95.290 E2.54358
G1 X101.462 Y95.435 E2.55975
G1 X101.764 Y95.543 E2.56865
G1 X102.052 Y95.668 E2.57738
G1 X102.569 Y95.952 E2.59376
G1 X103.046 Y96.298 E2.61014
G1 X103.291 Y96.514 E2.61919
G1 X103.686 Y96.935 E2.63524
G1 X103.890 Y97.199 E2.64449
G1 X104.202 Y97.690 E2.66067
G1 X104.453 Y98.224 E2.67704
G1 X104.563 Y98.531 E2.68610
G1 X104.710 Y99.102 E2.70247
G1 X104.783 Y99.687 E2.71885
G1 X104.793 Y100.001 E2.72758
G1 X104.783 Y100.321 E2.73648
G1 X104.710 Y100.899 E2.75266
G1 X104.563 Y101.469 E2.76903
G1 X104.453 Y101.776 E2.77809
G1 X104.201 Y102.310 E2.79447
G1 X103.885 Y102.808 E2.81086
G1 X103.681 Y103.071 E2.82011
G1 X103.333 Y103.441 E2.83420
G1 X102.927 Y103.117 F7800.000
G1 F1800
G1 X102.516 Y103.456 E2.84672
G1 X102.287 Y103.612 E2.85324
G1 X101.824 Y103.867 E2.86566
G1 X101.574 Y103.975 E2.87208
G1 X101.317 Y104.067 E2.87850
G1 X100.801 Y104.200 E2.89102
G1 X100.273 Y104.267 E2.90354
G1 X100.000 Y104.275 E2.90996
G1 X99.727 Y104.267 E2.91638
G1 X99.199 Y104.200 E2.92890
G1 X98.683 Y104.067 E2.94142
G1 X98.422 Y103.973 E2.94794
G1 X97.940 Y103.747 E2.96046
G1 X97.496 Y103.465 E2.97282
G1 X97.272 Y103.292 E2.97950
G1 X96.886 Y102.930 E2.99193
G1 X96.699 Y102.716 E2.99861
G1 X96.390 Y102.291 E3.01097
G1 X96.133 Y101.824 E3.02349
G1 X96.025 Y101.574 E3.02992
G1 X95.931 Y101.310 E3.03649
G1 X95.800 Y100.801 E3.04885
G1 X95.733 Y100.273 E3.06138
G1 X95.725 Y100.000 E3.06780
G1 X95.734 Y99.720 E3.07437
G1 X95.800 Y99.199 E3.08673
G1 X95.933 Y98.683 E3.09926
G1 X96.025 Y98.426 E3.10568
G1 X96.137 Y98.169 E3.11226
G1 X96.390 Y97.709 E3.12461
G1 X96.703 Y97.278 E3.13714
G1 X96.886 Y97.070 E3.14366
G1 X97.272 Y96.709 E3.15608
G1 X97.491 Y96.539 E3.16260
G1 X97.937 Y96.256 E3.17502
G1 X98.184 Y96.130 E3.18153
G1 X98.668 Y95.938 E3.19379
G1 X98.941 Y95.858 E3.20047
G1 X99.464 Y95.758 E3.21300
G1 X99.989 Y95.725 E3.22536
G1 X100.273 Y95.733 E3.23204
G1 X100.801 Y95.800 E3.24456
G1 X101.310 Y95.931 E3.25692
G1 X101.574 Y96.025 E3.26350
G1 X101.824 Y96.133 E3.26992
G1 X102.291 Y96.390 E3.28245
G1 X102.722 Y96.703 E3.29497
G1 X102.930 Y96.886 E3.30149
G1 X103.292 Y97.272 E3.31391
G1 X103.465 Y97.496 E3.32059
G1 X103.747 Y97.940 E3.33295
G1 X103.973 Y98.422 E3.34547
G1 X104.067 Y98.683 E3.35199
G1 X104.200 Y99.199 E3.36452
G1 X104.267 Y99.727 E3.37704
G1 X104.275 Y100.000 E3.38346
G1 X104.266 Y100.280 E3.39004
G1 X104.200 Y100.801 E3.40240
G1 X104.067 Y101.317 E3.41492
G1 X103.973 Y101.578 E3.42144
G1 X103.747 Y102.060 E3.43396
G1 X103.461 Y102.510 E3.44649
G1 X103.287 Y102.734 E3.45317
G1 X102.978 Y103.062 E3.46377
G1 X102.927 Y103.117 F7800.000
G1 E1.46377 F2400.00000
G92 E0
G1 X98.317 Y94.916 F7800.000
G1 E2.00000 F2400.00000
G1 F1800
G1 X97.739 Y95.145 E2.01728
G1 X97.401 Y95.317 E2.02780
G1 X96.869 Y95.655 E2.04530
G1 X96.570 Y95.887 E2.05583
G1 X96.269 Y96.170 E2.06729
G1 X97.029 Y94.854 E2.10949
G1 X98.530 Y94.854 E2.15119
G1 X98.389 Y94.895 E2.15527
G1 E0.15527 F2400.00000
G92 E0
G1 X94.819 Y98.682 F7800.000
G1 E2.00000 F2400.00000
G1 F1800
G1 X94.738 Y98.996 E2.00902
G1 X94.657 Y99.634 E2.02689
G1 X94.645 Y99.999 E2.03702
G1 X94.657 Y100.357 E2.04699
G1 X94.738 Y101.003 E2.06508
G1 X94.819 Y101.318 E2.07410
G1 X94.058 Y100.000 E2.11638
G1 X94.782 Y98.746 E2.15659
G1 E0.15659 F2400.00000
G92 E0
G1 X96.269 Y103.830 F7800.000
G1 E2.00000 F2400.00000
G1 F1800
G1 X96.571 Y104.113 E2.01149
G1 X96.876 Y104.350 E2.02221
G1 X97.420 Y104.694 E2.04009
G1 X98.009 Y104.971 E2.05817
G1 X98.546 Y105.146 E2.07386
G1 X97.029 Y105.146 E2.11599
G1 X96.307 Y103.895 E2.15611
G1 E0.15611 F2400.00000
G92 E0
G1 X101.454 Y105.146 F7800.000
G1 E2.00000 F2400.00000
G1 F1800
G1 X101.971 Y104.979 E2.01509
G1 X102.299 Y104.837 E2.02503
G1 X102.852 Y104.533 E2.04253
G1 X103.165 Y104.320 E2.05306
G1 X103.721 Y103.847 E2.07333
G1 X102.971 Y105.146 E2.11500
G1 X101.529 Y105.146 E2.15505
G1 E0.15505 F2400.00000
G92 E0
G1 X105.181 Y101.318 F7800.000
G1 E2.00000 F2400.00000
G1 F1800
G1 X105.262 Y101.004 E2.00902
G1 X105.343 Y100.366 E2.02689
G1 X105.355 Y100.001 E2.03702
G1 X105.343 Y99.642 E2.04699
G1 X105.262 Y98.996 E2.06508
G1 X105.181 Y98.682 E2.07411
G1 X105.942 Y100.000 E2.11640
G1 X105.218 Y101.254 E2.15661
G1 E0.15661 F2400.00000
G92 E0
G1 X103.721 Y96.153 F7800.000
G1 E2.00000 F2400.00000
G1 F1800
G1 X103.397 Y95.860 E2.01213
G1 X102.870 Y95.477 E2.03022
G1 X102.299 Y95.163 E2.04831
G1 X101.970 Y95.021 E2.05828
G1 X101.455 Y94.854 E2.07332
G1 X102.971 Y94.854 E2.11544
G1 X103.684 Y96.088 E2.15502
G1 X103.295 Y94.293 F7800.000
G1 F1800
G1 X106.590 Y100.000 E2.33807
G1 X103.295 Y105.707 E2.52113
G1 X96.705 Y105.707 E2.70418
G1 X93.410 Y100.000 E2.88723
G1 X96.705 Y94.293 E3.07029
G1 X103.220 Y94.293 E3.25126
G1 X103.594 Y93.775 F7800.000
G1 F1800
G1 X107.188 Y100.000 E3.42028
G1 X103.594 Y106.225 E3.58930
G1 X96.406 Y106.225 E3.75832
G1 X92.812 Y100.000 E3.92734
G1 X96.406 Y93.775 E4.09636
G1 X103.519 Y93.775 E4.26361
G1 X103.594 Y94.275 F7800.000
G1 Z0.650 F7800.000
G1 E2.26361 F2400.00000
G92 E0
G1 X102.404 Y95.807 F7800.000
G1 E2.00000 F2400.00000
G1 F900
G1 X102.601 Y95.922 E2.00615
G1 X103.073 Y96.265 E2.02188
G1 X103.320 Y96.483 E2.03078
G1 X103.719 Y96.908 E2.04651
G1 X103.933 Y97.186 E2.05595
G1 X104.239 Y97.670 E2.07141
G1 X104.492 Y98.207 E2.08743
G1 X104.604 Y98.518 E2.09633
G1 X104.752 Y99.094 E2.11236
G1 X104.826 Y99.683 E2.12840
G1 X104.826 Y100.317 E2.14549
G1 X104.752 Y100.906 E2.16152
G1 X104.603 Y101.484 E2.17760
G1 X104.483 Y101.813 E2.18704
G1 X104.239 Y102.331 E2.20250
G1 X103.919 Y102.834 E2.21857
G1 X103.704 Y103.109 E2.22801
G1 X103.311 Y103.527 E2.24347
G1 X102.853 Y103.905 E2.25949
G1 X102.580 Y104.091 E2.26839
G1 X102.071 Y104.371 E2.28407
G1 X101.482 Y104.604 E2.30116
G1 X100.906 Y104.752 E2.31720
G1 X100.317 Y104.826 E2.33323
G1 X99.683 Y104.826 E2.35032
G1 X99.094 Y104.752 E2.36635
G1 X98.518 Y104.604 E2.38239
G1 X98.207 Y104.492 E2.39129
G1 X97.670 Y104.239 E2.40731
G1 X97.186 Y103.933 E2.42277
G1 X96.908 Y103.719 E2.43221
G1 X96.483 Y103.320 E2.44794
G1 X96.265 Y103.073 E2.45684
G1 X95.916 Y102.592 E2.47287
G1 X95.629 Y102.071 E2.48891
G1 X95.390 Y101.461 E2.50658
G1 X95.248 Y100.906 E2.52204
G1 X95.174 Y100.317 E2.53806
G1 X95.176 Y99.662 E2.55574
G1 X95.249 Y99.093 E2.57120
G1 X95.396 Y98.518 E2.58721
G1 X95.639 Y97.909 E2.60489
G1 X95.911 Y97.418 E2.62005
G1 X96.108 Y97.129 E2.62947
G1 X96.474 Y96.688 E2.64493
G1 X96.907 Y96.282 E2.66095
G1 X97.168 Y96.080 E2.66985
G1 X97.659 Y95.768 E2.68553
G1 X97.953 Y95.618 E2.69444
G1 X98.493 Y95.404 E2.71011
G1 X98.810 Y95.312 E2.71902
G1 X99.393 Y95.201 E2.73504
G1 X99.965 Y95.164 E2.75050
G1 X100.315 Y95.174 E2.75994
G1 X100.906 Y95.248 E2.77601
G1 X101.461 Y95.390 E2.79147
G1 X101.790 Y95.507 E2.80089
G1 X102.340 Y95.769 E2.81731
G1 X102.121 Y96.291 F7800.000
G1 F900
G1 X102.294 Y96.392 E2.82144
G1 X102.722 Y96.703 E2.83234
G1 X102.930 Y96.886 E2.83805
G1 X103.292 Y97.272 E2.84895
G1 X103.473 Y97.507 E2.85507
G1 X103.747 Y97.940 E2.86563
G1 X103.973 Y98.422 E2.87661
G1 X104.067 Y98.683 E2.88232
G1 X104.200 Y99.199 E2.89330
G1 X104.267 Y99.727 E2.90427
G1 X104.267 Y100.273 E2.91552
G1 X104.200 Y100.801 E2.92649
G1 X104.067 Y101.318 E2.93748
G1 X103.965 Y101.596 E2.94360
G1 X103.747 Y102.060 E2.95416
G1 X103.461 Y102.510 E2.96515
G1 X103.278 Y102.744 E2.97127
G1 X102.927 Y103.117 E2.98183
G1 X102.516 Y103.456 E2.99280
G1 X102.287 Y103.612 E2.99852
G1 X101.824 Y103.867 E3.00941
G1 X101.317 Y104.067 E3.02065
G1 X100.801 Y104.200 E3.03163
G1 X100.273 Y104.267 E3.04260
G1 X99.727 Y104.267 E3.05385
G1 X99.199 Y104.200 E3.06482
G1 X98.683 Y104.067 E3.07580
G1 X98.422 Y103.973 E3.08151
G1 X97.940 Y103.747 E3.09249
G1 X97.507 Y103.473 E3.10305
G1 X97.272 Y103.292 E3.10917
G1 X96.886 Y102.930 E3.12007
G1 X96.703 Y102.722 E3.12578
G1 X96.390 Y102.291 E3.13676
G1 X96.133 Y101.824 E3.14774
G1 X95.927 Y101.298 E3.15939
G1 X95.800 Y100.801 E3.16996
G1 X95.733 Y100.273 E3.18093
G1 X95.735 Y99.707 E3.19259
G1 X95.800 Y99.199 E3.20315
G1 X95.933 Y98.683 E3.21413
G1 X96.143 Y98.158 E3.22578
G1 X96.388 Y97.712 E3.23627
G1 X96.556 Y97.468 E3.24239
G1 X96.883 Y97.073 E3.25295
G1 X97.272 Y96.709 E3.26392
G1 X97.491 Y96.539 E3.26964
G1 X97.937 Y96.256 E3.28053
G1 X98.184 Y96.130 E3.28624
G1 X98.675 Y95.935 E3.29713
G1 X98.941 Y95.858 E3.30284
G1 X99.464 Y95.758 E3.31381
G1 X99.976 Y95.725 E3.32438
G1 X100.272 Y95.733 E3.33050
G1 X100.801 Y95.800 E3.34148
G1 X101.298 Y95.927 E3.35205
G1 X101.577 Y96.026 E3.35816
G1 X102.056 Y96.253 E3.36909
G1 X102.293 Y96.188 F7800.000
G1 E1.36909 F2400.00000
G92 E0
G1 X97.691 Y95.038 F7800.000
G1 E2.00000 F2400.00000
G1 F900
G1 X97.343 Y95.215 E2.01052
G1 X96.721 Y95.622 E2.03056
G1 X97.097 Y94.971 E2.05082
G1 X97.860 Y94.971 E2.07142
G1 X97.760 Y95.011 E2.07431
G1 E0.07431 F2400.00000
G92 E0
G1 X94.577 Y99.336 F7800.000
G1 E2.00000 F2400.00000
G1 F900
G1 X94.542 Y99.610 E2.00745
G1 X94.528 Y99.997 E2.01790
G1 X94.540 Y100.367 E2.02788
G1 X94.577 Y100.665 E2.03600
G1 X94.193 Y100.000 E2.05671
G1 X94.539 Y99.401 E2.07538
G1 E0.07538 F2400.00000
G92 E0
G1 X96.821 Y104.454 F7800.000
G1 E2.00000 F2400.00000
G1 F900
G1 X97.364 Y104.797 E2.01731
G1 X97.855 Y105.029 E2.03197
G1 X97.097 Y105.029 E2.05243
G1 X96.720 Y104.376 E2.07276
G1 X96.762 Y104.409 E2.07419
G1 E0.07419 F2400.00000
G92 E0
G1 X102.151 Y105.029 F7800.000
G1 E2.00000 F2400.00000
G1 F900
G1 X102.351 Y104.942 E2.00589
G1 X102.913 Y104.633 E2.02319
G1 X103.279 Y104.378 E2.03524
G1 X102.903 Y105.029 E2.05552
G1 X102.226 Y105.029 E2.07380
G1 E0.07380 F2400.00000
G92 E0
G1 X105.423 Y100.665 F7800.000
G1 E2.00000 F2400.00000
G1 F900
G1 X105.460 Y100.367 E2.00811
G1 X105.472 Y100.000 E2.01801
G1 X105.460 Y99.633 E2.02791
G1 X105.423 Y99.335 E2.03602
G1 X105.807 Y100.000 E2.05673
G1 X105.460 Y100.600 E2.07543
G1 E0.07543 F2400.00000
G92 E0
G1 X103.286 Y95.635 F7800.000
G1 E2.00000 F2400.00000
G1 F900
G1 X102.949 Y95.390 E2.01124
G1 X102.595 Y95.182 E2.02231
G1 X102.145 Y94.971 E2.03573
G1 X102.903 Y94.971 E2.05619
G1 X103.249 Y95.570 E2.07483
G1 X103.270 Y94.336 F7800.000
G1 F900
G1 X106.541 Y100.000 E2.25127
G1 X103.270 Y105.664 E2.42771
G1 X96.730 Y105.664 E2.60416
G1 X93.459 Y100.000 E2.78060
G1 X96.730 Y94.336 E2.95705
G1 X103.195 Y94.336 E3.13147
G1 X103.594 Y93.775 F7800.000
G1 F3000
G1 X107.188 Y100.000 E3.27962
G1 X103.594 Y106.225 E3.42776
G1 X96.406 Y106.225 E3.57591
G1 X92.812 Y100.000 E3.72406
G1 X96.406 Y93.775 E3.87221
G1 X103.519 Y93.775 E4.01881
G1 X103.594 Y94.275 F7800.000
G1 Z0.950 F7800.000
G1 E2.01881 F2400.00000
G92 E0
G1 X102.409 Y95.810 F7800.000
G1 E2.00000 F2400.00000
G1 F900
G1 X102.600 Y95.922 E2.00597
G1 X103.073 Y96.265 E2.02172
G1 X103.320 Y96.483 E2.03063
G1 X103.720 Y96.909 E2.04638
G1 X103.940 Y97.197 E2.05614
G1 X104.239 Y97.670 E2.07126
G1 X104.493 Y98.210 E2.08735
G1 X104.613 Y98.551 E2.09711
G1 X104.752 Y99.094 E2.11223
G1 X104.826 Y99.683 E2.12824
G1 X104.823 Y100.351 E2.14627
G1 X104.751 Y100.907 E2.16139
G1 X104.603 Y101.485 E2.17747
G1 X104.478 Y101.824 E2.18723
G1 X104.238 Y102.331 E2.20235
G1 X103.919 Y102.835 E2.21844
G1 X103.695 Y103.119 E2.22820
G1 X103.311 Y103.527 E2.24332
G1 X102.853 Y103.905 E2.25933
G1 X102.580 Y104.091 E2.26824
G1 X102.071 Y104.371 E2.28391
G1 X101.482 Y104.604 E2.30101
G1 X100.906 Y104.752 E2.31704
G1 X100.317 Y104.826 E2.33307
G1 X99.683 Y104.826 E2.35016
G1 X99.094 Y104.752 E2.36619
G1 X98.518 Y104.604 E2.38223
G1 X98.208 Y104.492 E2.39111
G1 X97.712 Y104.260 E2.40587
G1 X97.400 Y104.078 E2.41564
G1 X96.925 Y103.733 E2.43147
G1 X96.655 Y103.492 E2.44123
G1 X96.272 Y103.083 E2.45635
G1 X95.916 Y102.592 E2.47271
G1 X95.629 Y102.071 E2.48875
G1 X95.387 Y101.449 E2.50677
G1 X95.248 Y100.906 E2.52189
G1 X95.174 Y100.317 E2.53790
G1 X95.177 Y99.649 E2.55592
G1 X95.249 Y99.093 E2.57104
G1 X95.396 Y98.518 E2.58705
G1 X95.645 Y97.898 E2.60508
G1 X95.916 Y97.407 E2.62020
G1 X96.265 Y96.927 E2.63621
G1 X96.483 Y96.680 E2.64511
G1 X96.907 Y96.282 E2.66079
G1 X97.167 Y96.080 E2.66967
G1 X97.629 Y95.786 E2.68443
G1 X97.950 Y95.619 E2.69419
G1 X98.493 Y95.404 E2.70995
G1 X98.810 Y95.312 E2.71886
G1 X99.393 Y95.201 E2.73486
G1 X99.952 Y95.165 E2.74998
G1 X100.314 Y95.174 E2.75975
G1 X100.906 Y95.248 E2.77586
G1 X101.482 Y95.396 E2.79189
G1 X101.792 Y95.508 E2.80077
G1 X102.344 Y95.773 E2.81730
G1 X102.127 Y96.295 F7800.000
G1 F900
G1 X102.294 Y96.392 E2.82127
G1 X102.722 Y96.703 E2.83218
G1 X102.930 Y96.886 E2.83789
G1 X103.292 Y97.272 E2.84880
G1 X103.479 Y97.517 E2.85516
G1 X103.747 Y97.941 E2.86548
G1 X103.974 Y98.423 E2.87647
G1 X104.076 Y98.714 E2.88282
G1 X104.200 Y99.199 E2.89314
G1 X104.267 Y99.727 E2.90412
G1 X104.264 Y100.305 E2.91602
G1 X104.200 Y100.801 E2.92634
G1 X104.067 Y101.318 E2.93733
G1 X103.961 Y101.607 E2.94369
G1 X103.747 Y102.060 E2.95401
G1 X103.461 Y102.510 E2.96500
G1 X103.270 Y102.753 E2.97135
